X:39
T:Jackie Small's Jig
R:jig
D:De Dannan.
Z:id:hn-jig-39
M:6/8
K:Edor
~E3 cEE|BEE AFD|~E3 cdc|BAF AFD|~E3 cEE|BEE ABc|def edB|1 BAF AFD:|2 BAF AFA||
|:~f3 efe|edB ABd|f2d efe|edB d2e|fgf fed|edB ABc|def edB|1 BAF AFA:|2 BAF AFD||

